X: 42093
T: Wandering Minstrel, The
R: jig
M: 6/8
K: Dmajor
|:B|ADD BAF|Ade fdB|ADD BAG|FGF E2|
ADD BAF|Ade fdB|AdB AFE|FDD D2:|
|:g|~f3 ede|fdB AFA|B/c/d B AGF|AGF E2|
g ~f3 ede|fdB AFA|B/c/d B AFE|FDD D2:|
|:e|~f3 afd|gbe gbe|~f3 afd|ceA ceA|
~f3 afd|gbe gbe|fga efg|fdc d2:|

